X: 143
T: REEL: Morning Star
C: C: Trad.; S: Various
C: Set Leaders: Mars, Anton
Z: Mars Agliullin ed., Anton Zille ed.; UPipes & harp at The Session
N: https://thesession.org/members/26966/sets/94278
R: Reel
M: 4/4
L: 1/8
Q: 1/2=100
K: Gmaj
~B2 Ad BGED|GA (3Bcd edgd|~B2Ad BGED|GBAF ~G3A|
~B3A BGEF|GABd efge|dBAc BGEF|GBAF ~G3A||
(3Bcd ef g2 eg|fedf edBA|(3Bcd ef g2eg|fedf e2ed|
(3Bcd ef ~g2 eg|fedf edBA|Bdd^c d3g|fgaf gfed||

